X:965
T:Baginbun Dance
M:6/8
L:1/8
C:Shane Bracken
R:jig
D:Lia Luachra: Traffic
Z:Devin McCabe
K:D
fda ded|def eAF|B, D/2G/2c dG,D|cdF Aeg|
!f2d- ~d2a|def ed^B|cAe AfA|a_bA =bc'A|
!fda ded|def eAF|B, D/2G/2c dG,D|cdF Aeg|
!f2d- ~d2a-|add cBA|BAa edB|cBA c3|
!G,Dc dcA|e2e dcB,|Ggd cAd|FAd cAd|
!G,Dc dcA|e2e dcB,|Ggd cAd|FAd cee|
!G,Dc dcA|e2e dcB,|Ggd cAd|FAd cff|
!G,Dc dcA|e2e dcB,|Ggd cAd|FAd cee|
!f2d- ~d2=c-|~=c2A ^c2A-|~A2d AGE|FGA cde|
!fed ed=c|d=cA dcA|dcA A A/2A/2A|ecA cde|
!f2d- ~d2=c-|~=c2A ^c2A-|~A2d AGE|FGA cde|
!fed ed=c|d=cA dcA|cde def|efg abc'||
